X:1
T:Woodstock (Dutton), CM
T:Woodstock (Dutton), CM
T:Deodatus Dutton, Jr., 1829
T:Public Domain Courtesy of the Cyber Hymnal™
C:Deodatus Dutton, Jr., 1829
Z:Public Domain
Z:Courtesy of the Cyber Hymnal™
%%score ( 1 2 ) ( 3 4 )
L:1/8
Q:1/4=100
M:3/4
K:G
V:1 treble 
V:2 treble 
V:3 bass 
V:4 bass 
V:1
 [DG]2 | [DB]>[DB] [DB]2 [Dd]2 | [DA]>[DA] [DA]2 [DB]2 | [Gc][Gd] (ed) (cB) | (B2 A2) [FA]2 | %5
 [GB]>[GB] [GB]2 [Gd]2 | [FA]>[FA] [FA]2 [Ge]2 | (d/c/) (B/A/) [DG]2 [DF]2 | [DG]4 |] %9
V:2
 x2 | x6 | x6 | x2 G2 D2 | D4 x2 | x6 | x6 | GE x4 | x4 |] %9
V:3
 [G,B,]2 | G,>G, G,2 [B,,G,]2 | [D,F,]>[D,F,] [D,F,]2 G,2 | %3
 [E,G,][D,B,] ([C,C][B,,G,]) ([A,,F,][G,,G,]) | (G,2 F,2) [D,D]2 | [G,D]>[G,D] [G,D]2 [B,,D]2 | %6
 [D,D]>[D,D] [D,D]2 [C,G,]2 | [B,,G,][C,C] [D,B,]2 [D,A,]2 | [G,,B,]4 |] %9
V:4
 x2 | G,>G, G,2 x2 | x4 G,2 | x6 | D,4 x2 | x6 | x6 | x6 | x4 |] %9

